public/svg/security-camera.svg

<svg enable-background="new 0 0 512 512" viewBox="0 0 512 512" xmlns="http://www.w3.org/2000/svg" xmlns:xlink="http://www.w3.org/1999/xlink"><linearGradient id="a"><stop offset="0" stop-color="#4cb5ea"/><stop offset="1" stop-color="#5a6cdd"/></linearGradient><linearGradient id="b" gradientUnits="userSpaceOnUse" x1="245.8226" x2="260.8226" xlink:href="#a" y1="2.2993" y2="512.2993"/><linearGradient id="c" gradientUnits="userSpaceOnUse" x1="426.677" x2="441.677" xlink:href="#a" y1="-3.0199" y2="506.9801"/><linearGradient id="d" gradientUnits="userSpaceOnUse" x1="144.232" x2="159.232" xlink:href="#a" y1="5.2873" y2="515.2873"/><path d="m508.5 223.6-312-180.1c-18.7-10.7-42.5-4.4-53.3 14.3l-35.9 62.2-23.9 41.4c-10.7 18.7-4.4 42.5 14.3 53.3l107 61.8-16.7 28.3c-4.5 7.6-12.7 12.3-21.6 12.4h-62.4v-47.6c0-3.9-3.1-7-7-7h-38v-9c0-17.1-13.9-31-31-31h-21c-3.9 0-7 3.1-7 7v237.3c0 3.9 3.1 7 7 7h21c17.1 0 31-13.9 31-31v-22.2h38c3.9 0 7-3.1 7-7v-34.4h62.5c30.9-.1 59.4-16.4 75-43l16.9-28.7 58.6 33.9c5.9 3.4 12.6 5.2 19.4 5.2 3.4 0 6.8-.5 10.2-1.3 6.4-1.7 12.2-5 16.9-9.6 7.7 3.6 16 5.4 24.5 5.4 5.2 0 10.3-.7 15.3-2 12.8-3.4 24-11 31.9-21.6l14.3 8.3c3.3 1.9 7.6.8 9.6-2.6l51.9-89.9c2-3.6.8-7.9-2.5-9.8zm-463.5 219.2c0 9.4-7.6 17-17 17h-14v-223.3h14c9.4 0 17 7.6 17 17zm45-36.3h-31v-130h31zm139.4-77.4c-13.1 22.3-37.1 36-63 36.1h-62.4v-34h62.5c13.8 0 26.6-7.4 33.6-19.3l16.7-28.4 29.4 17zm94.6 0-219.3-126.6c-11.9-6.9-16-22.2-9.2-34.2l20.4-35.3 201 116 61.6 35.6-20.4 35.4c-.5.9-1.1 1.8-1.8 2.6-7.6 10-21.4 12.8-32.3 6.5zm75.7-3.6c-9.2 2.5-18.9 2-27.7-1.5l18.7-32.4 32.4 18.7c-6 7.4-14.2 12.7-23.4 15.2zm50.8-15.5-45.3-26.1-13.7-7.9-154.5-89.2-114.1-65.9 32.4-56.2c6.9-11.9 22.2-16 34.2-9.1l305.9 176.6z" fill="url(#b)"/><path d="m420.6 272c4.1 2.4 8.7 3.6 13.4 3.6 2.4 0 4.7-.3 7-.9 14.4-3.8 22.9-18.6 19-33-3.8-14.4-18.6-22.9-33-19-14.4 3.8-22.9 18.6-19 33 1.9 6.8 6.4 12.7 12.6 16.3zm2.3-29.8c1.7-3 4.5-5.1 7.8-6 1.1-.3 2.2-.4 3.4-.4 7.1 0 12.9 5.8 12.9 12.9s-5.8 12.9-12.9 12.9-12.9-5.8-12.9-12.9c0-2.3.6-4.5 1.7-6.5z" fill="url(#c)"/><path d="m182 201.1-57.4-33.1c-3.3-2-7.6-.8-9.6 2.5s-.8 7.6 2.5 9.6h.1l57.4 33.1c3.4 1.8 7.7.5 9.4-3 1.8-3.2.7-7.2-2.4-9.1z" fill="url(#d)"/></svg>

<?xml version="1.0" encoding="utf-8"?>
<!-- Generator: Adobe Illustrator 24.0.3, SVG Export Plug-In . SVG Version: 6.00 Build 0)  -->
<svg version="1.1" id="Calque_1" xmlns="http://www.w3.org/2000/svg" xmlns:xlink="http://www.w3.org/1999/xlink" x="0px" y="0px"
	 viewBox="0 0 512 512" style="enable-background:new 0 0 512 512;" xml:space="preserve">
<style type="text/css">
	.st0{fill:url(#SVGID_1_);}
	.st1{fill:url(#SVGID_2_);}
	.st2{fill:url(#SVGID_3_);}
</style>
<g>
	<linearGradient id="SVGID_1_" gradientUnits="userSpaceOnUse" x1="245.8226" y1="2.2993" x2="260.8226" y2="512.2993">
		<stop  offset="0" style="stop-color:#4CB5EA"/>
		<stop  offset="1" style="stop-color:#5A6CDD"/>
	</linearGradient>
	<path class="st0" d="M508.5,223.6l-312-180.1c-18.7-10.7-42.5-4.4-53.3,14.3L107.3,120l-23.9,41.4c-10.7,18.7-4.4,42.5,14.3,53.3
		l107,61.8L188,304.8c-4.5,7.6-12.7,12.3-21.6,12.4H104v-47.6c0-3.9-3.1-7-7-7H59v-9c0-17.1-13.9-31-31-31H7c-3.9,0-7,3.1-7,7
		c0,0,0,0,0,0v237.3c0,3.9,3.1,7,7,7c0,0,0,0,0,0h21c17.1,0,31-13.9,31-31v-22.2h38c3.9,0,7-3.1,7-7v-34.4h62.5
		c30.9-0.1,59.4-16.4,75-43l16.9-28.7l58.6,33.9c5.9,3.4,12.6,5.2,19.4,5.2c3.4,0,6.8-0.5,10.2-1.3c6.4-1.7,12.2-5,16.9-9.6
		c7.7,3.6,16,5.4,24.5,5.4c5.2,0,10.3-0.7,15.3-2c12.8-3.4,24-11,31.9-21.6l14.3,8.3c3.3,1.9,7.6,0.8,9.6-2.6c0,0,0,0,0,0l51.9-89.9
		C513,229.8,511.8,225.5,508.5,223.6C508.5,223.6,508.5,223.6,508.5,223.6z M45,442.8c0,9.4-7.6,17-17,17H14V236.5h14
		c9.4,0,17,7.6,17,17V442.8z M90,406.5H59v-130h31V406.5z M229.4,329.1c-13.1,22.3-37.1,36-63,36.1H104v-34h62.5
		c13.8,0,26.6-7.4,33.6-19.3l16.7-28.4l29.4,17L229.4,329.1z M324,329.1L104.7,202.5c-11.9-6.9-16-22.2-9.2-34.2l20.4-35.3l201,116
		l61.6,35.6L358.1,320l0,0c-0.5,0.9-1.1,1.8-1.8,2.6v0C348.7,332.6,334.9,335.4,324,329.1z M399.7,325.5c-9.2,2.5-18.9,2-27.7-1.5
		l18.7-32.4l32.4,18.7C417.1,317.7,408.9,323,399.7,325.5L399.7,325.5z M450.5,310l-45.3-26.1l-13.7-7.9l-154.5-89.2l-114.1-65.9
		l32.4-56.2c6.9-11.9,22.2-16,34.2-9.1l305.9,176.6L450.5,310z"/>
	<linearGradient id="SVGID_2_" gradientUnits="userSpaceOnUse" x1="426.677" y1="-3.0199" x2="441.677" y2="506.9801">
		<stop  offset="0" style="stop-color:#4CB5EA"/>
		<stop  offset="1" style="stop-color:#5A6CDD"/>
	</linearGradient>
	<path class="st1" d="M420.6,272c4.1,2.4,8.7,3.6,13.4,3.6c2.4,0,4.7-0.3,7-0.9c14.4-3.8,22.9-18.6,19-33c-3.8-14.4-18.6-22.9-33-19
		c-14.4,3.8-22.9,18.6-19,33C409.9,262.5,414.4,268.4,420.6,272z M422.9,242.2c1.7-3,4.5-5.1,7.8-6c1.1-0.3,2.2-0.4,3.4-0.4
		c7.1,0,12.9,5.8,12.9,12.9c0,7.1-5.8,12.9-12.9,12.9c-7.1,0-12.9-5.8-12.9-12.9C421.2,246.4,421.8,244.2,422.9,242.2L422.9,242.2z"
		/>
	<linearGradient id="SVGID_3_" gradientUnits="userSpaceOnUse" x1="144.232" y1="5.2873" x2="159.232" y2="515.2873">
		<stop  offset="0" style="stop-color:#4CB5EA"/>
		<stop  offset="1" style="stop-color:#5A6CDD"/>
	</linearGradient>
	<path class="st2" d="M182,201.1L124.6,168c-3.3-2-7.6-0.8-9.6,2.5c-2,3.3-0.8,7.6,2.5,9.6c0,0,0.1,0,0.1,0l57.4,33.1
		c3.4,1.8,7.7,0.5,9.4-3C186.2,207,185.1,203,182,201.1z"/>
</g>
</svg>
